!!!OTL@@DE: Der Gesang
!!!COM: Volksweise
!!!ODT: 1830
!!!OMD: Ruhig
!!!LYR: Seume, Johann Gottfried
!!!LDT: 1804
!!!OCL: Erk, Ludwig
!!!GCO: Deutscher Liederschatz, Band 1
**kern	**kern	**kern
*staff3	*staff2	*staff1
*Ipiano	*Ipiano	*Ivox
*>[A,B,B]	*>[A,B,B]	*>[A,B,B]
*>norep[A,B]	*>norep[A,B]	*>norep[A,B]
*>A	*>A	*>A
*clefF4	*clefG2	*clefG2
*k[b-e-a-]	*k[b-e-a-]	*k[b-e-a-]
*E-:	*E-:	*E-:
*met(C)	*met(C)	*met(C)
*M4/4	*M4/4	*M4/4
*MM110	*MM110	*MM110
4EE-/ 4E-/	8r	2r
.	8B-/L	.
4r	8e-/ 8g/	.
.	8B-/J	.
4EE-/ 4E-/	8e-/ 8g/L	4r
.	8B-/J	.
=!|:	=!|:	=!|:
*>B	*>B	*>B
4r	8e-/ 8g/L	8g/
.	8f/ 8a-/J	8a-/
=1	=1	=1
2.EE-/ 2.E-/	(8a-/ 8cc/L	(8cc\L
.	8g/) 8b-/	8b-\J)
.	8g/ 8b-/	4g/
.	8e-/J	.
.	8g/ 8b-/L	8b-\
.	8e-/J	8b-\
4GG/ 4G/	8b-/ 8ee-/L	8ee-\
.	8e-/ 8dd/J	8dd\
=2	=2	=2
2AA-\ 2A-\	8b-/ 8dd/L	4dd\
.	8e-/	.
.	8a-/ 8cc/	4cc\
.	8e-/J	.
4C/	8a-/ 8cc/L	4r
.	8e-/	.
4AA-/	8a-/ 8cc/	8cc\
.	8e-/J	8cc\
=3	=3	=3
2BB-/	8g/ 8b-/L	4.b-\
.	8B-/	.
.	8e-/ 8g/	.
.	8B-/J	8g/
4BB-/	8d/ 8f/L	8f/
*^	*	*
.	.	8B-/	8f/
8A-/L	4BB-\	8f/	8cc\
8F/J	.	8d/ 8b-/J	8b-\
=4	=4	=4	=4
(4E-/	2.EE-\	8e-/ 8g/L	4g/
.	.	8B-/	.
4BB-/	.	8e-/ 8g/	4r
.	.	8B-/J	.
4E-/)	.	8e-/ 8g/L	4r
.	.	8B-/	.
4ryy	8D\L	8f/ 8b-/	8b-\
.	8E-\J	8g/ 8b-/J	8b-\
*v	*v	*	*
=5	=5	=5
4F\	8d/ 8a-/ 8b-/L	(8b-/L
.	8B-/	8d/J)
4BB-\ 4F\	8d/ 8a-/ 8b-/	4d/
.	8B-/J	.
8D\L	8f/ 8a-/ 8b-/L	8b-\
8E-\	8e-/ 8g/ 8b-/	8b-\
8A-\	8e-/ 8a-/ 8cc/	8cc\
8F\J	8a-/ 8dd/J	8dd\
=6	=6	=6
2C/	8g/ 8ee-/L	2ee-\
.	8e-/	.
.	8g/ 8ee-/	.
.	8e-/J	.
4C/	8g/ 8ee-/L	4r
.	8e-/	.
4D\	8a-/ 8b-/	8.b-\
.	8f/J	.
.	.	16b-\
=7	=7	=7
4E-\	8g/ 8b-/L	4b-\
.	8e-/	.
4AAn/	8g-/ 8cc/	4ee-\
.	8e-/J	.
4BB-/	8f/ 8b-/L	8.dd\
.	8d/	.
.	.	16b-\
4BB-\ 4F\	8B-/ 8d/	8.a-/
.	8A-/J	.
.	.	16f/
=8	=8	=8
4E-\	(8A-/ 8d/ 8f/L	(8f/L
.	8G/) 8e-/J	8e-/J)
4EE-/ 4E-/	4G/ 4B-/ 4e-/	4e-/
4r	4r	4r
==:|!	==:|!	==:|!
*-	*-	*-
!!!ENC: Craig Stuart Sapp
!!!END: 2004/06/01/
!!!EFL: 128/651
